contributed-vectors/teamfight_tactics.svg

<svg xmlns="http://www.w3.org/2000/svg" width="192" height="192" fill="none"><g clip-path="url(#a)"><g clip-path="url(#b)"><path fill="#9ABEFF" d="M96.11 172c42.034 0 76.11-12.33 76.11-27.54 0-15.21-34.076-27.54-76.11-27.54S20 129.25 20 144.46C20 159.67 54.076 172 96.11 172Z"/><path fill="#728DBE" d="M96.11 164.12c35.97 0 65.13-9.698 65.13-21.66s-29.16-21.66-65.13-21.66-65.13 9.698-65.13 21.66 29.16 21.66 65.13 21.66Z"/><path fill="#56595B" d="M135.09 120.07c-.3.15 2.29 4.4 3.26 10.56.33 2.11.39 3.88.39 5.08.13 2.8.01 6.43-.92 10.52-.51 2.27-1.18 4.27-1.87 5.97-.27.32-.7.78-1.36 1.24-1.85-23.31-3.3-33-4.45-35.28-.03-.04-.17-.33-.36-.74-.61-1.3-1.73-4-2.26-7.52-.08-.51-.14-1.02-.17-1.53.81-1.23 1.47-2.29 1.97-3.11 1.55-2.55 3.3-5.46 4.95-8.86 1.57-3.25 3.05-6.95 4.16-11.23.03-.15.63-2.45 1.08-5l.18 4.59c6.43-12.15 9.09-14.23 10.32-13.83 3.13 1.05.33 19.39-3.6 33.05-2.59 9.02-5.71 16.17-8.04 20.93-2.46-4.09-3.14-4.92-3.28-4.84Z"/><path fill="#fff" d="M134.59 153.44c-3.06 5.4-9.1 8.15-13.4 9.58-6.93 1.22-15.28 2.16-24.74 2.18-9.75.02-18.33-.94-25.41-2.18-1.79-.49-4.35-1.52-7.17-3.3-2.43-1.54-4.7-3.58-6.23-6.28 1.85-23.31 3.3-33 4.45-35.28.03-.04.17-.33.36-.74.61-1.3 1.73-4 2.26-7.52.08-.51.14-1.02.17-1.53.53.81 1.13 1.7 1.79 2.64 1.02-3.23 1.97-7.97.83-13.27-1.41-6.56-4.8-8.16-5.09-14.2-.26-5.36 2.05-11.63 5.7-12.6 1.41-.37 2.08.3 6.02 1.82 6.73 2.61 8.05 1.93 12.71 3.92 2.36 1.02 5.66 2.77 9.27 5.88 3.61-3.11 6.91-4.86 9.27-5.88 4.66-2 5.98-1.31 12.71-3.92 3.94-1.53 4.61-2.19 6.02-1.82 3.65.97 5.95 7.24 5.7 12.6-.29 6.05-3.68 7.64-5.09 14.2-1.14 5.3-.19 10.04.83 13.27.66-.94 1.26-1.83 1.79-2.64.03.51.09 1.02.17 1.53.53 3.52 1.65 6.22 2.26 7.52.19.4.33.69.36.74 1.16 2.28 2.61 11.97 4.46 35.28Z"/><path fill="#56595B" d="M120.14 75.02c2.88.13 4.82 2.29 5.2 2.71 2.78 3.09 3.18 8.08 1 12.77a16.376 16.376 0 0 0-14.04-.06c-.61-.99-1.47-2.72-1.49-4.92-.07-5.18 4.55-10.72 9.33-10.5Z"/><path fill="#BD9AFF" d="M112.29 90.44c.45.62 1.18 1.47 2.27 2.24 2.37 1.67 6.61 3.02 9.53.94.55-.39 1.59-1.28 2.24-3.12-1.3-.62-3.58-1.5-6.56-1.6-3.46-.11-6.13.91-7.48 1.54Z"/><path fill="#fff" d="M116.66 77.76c.95-.08 1.86.75 1.82 1.71-.03.76-.63 1.41-1.38 1.55-.82.15-1.66-.33-1.91-1.08-.31-.96.44-2.09 1.47-2.18Z"/><path fill="#F8C18C" d="M106.57 90.88c-1.91 3.71-4.83 7.68-9.33 10.53-.38.24-.75.47-1.13.68-.38-.21-.75-.44-1.13-.68-4.5-2.85-7.42-6.82-9.33-10.53.21-.74.49-1.38.79-1.94 2.47-4.65 7.92-6.01 9.67-6.38 1.76.37 7.21 1.73 9.67 6.38.3.56.58 1.2.79 1.94Z"/><path fill="#511119" d="M100.13 97.01c.07-.08.14-.15.21-.21v-.01c.65-.66 1.25-1.31 1.81-1.94-.07-.27-.73-2.54-3.09-3.52a5.07 5.07 0 0 0-2.54-.36c.89-.75 2.12-1.41 3.67-1.49.41-.03 3.14-.15 3.77 1.2.67 1.49-1.53 4.09-3.83 6.33Z"/><path fill="#56595B" d="M57.13 120.07c.3.15-2.29 4.4-3.26 10.56-.33 2.11-.39 3.88-.39 5.08-.13 2.8-.01 6.43.92 10.52.51 2.27 1.18 4.27 1.87 5.97.27.32.7.78 1.36 1.24 1.85-23.31 3.3-33 4.45-35.28.03-.04.17-.33.36-.74.61-1.3 1.73-4 2.26-7.52.08-.51.14-1.02.17-1.53-.81-1.23-1.47-2.29-1.97-3.11-1.55-2.55-3.3-5.46-4.95-8.86-1.57-3.25-3.05-6.95-4.16-11.23-.03-.15-.63-2.45-1.08-5l-.18 4.59c-6.43-12.15-9.09-14.23-10.32-13.83-3.13 1.05-.33 19.39 3.6 33.05 2.59 9.02 5.71 16.17 8.04 20.93 2.47-4.09 3.14-4.92 3.28-4.84Z"/><path fill="#B1B5BD" d="M137.44 49.18c-1.89-2.91-5.29-7.11-10.84-9.87-1.23-.61-2.42-1.08-3.55-1.45 1.13 2.6 2.26 5.19 3.4 7.79a18.947 18.947 0 0 1-5.14 8.14c-2.56-1.64-4.4-2.91-5.75-3.89-.99-.73-2.16-1.6-3.89-1.86-1.11-.15-1.3.1-2.05-.05-2.15-.43-3.95-3.21-4.21-5.8-.39-4.13 3.23-6.79 3.4-6.91-.76-2.14-1.98-4.85-3.95-7.69-.33-.48-.67-.93-1.02-1.37-.09-.12-.18-.23-.27-.34-.28-.34-.55-.68-.83-1-.08-.09-.16-.19-.24-.28-.27-.3-.54-.59-.8-.87A32.656 32.656 0 0 0 96.11 19a33.459 33.459 0 0 0-5.61 4.73c-.27.28-.54.57-.8.87-.08.09-.16.19-.24.28-.28.32-.56.65-.83 1-.09.11-.18.23-.27.34-.34.44-.68.89-1.02 1.37a32.545 32.545 0 0 0-3.95 7.69c.17.13 3.8 2.78 3.4 6.91-.26 2.59-2.06 5.37-4.21 5.8-.75.15-.94-.1-2.05.05-1.73.26-2.9 1.13-3.89 1.86-1.35.98-3.19 2.25-5.75 3.89-.9-.83-2-2.02-3.02-3.62-1.09-1.7-1.73-3.31-2.12-4.52 1.14-2.6 2.27-5.19 3.4-7.79-1.13.37-2.32.84-3.55 1.45-5.54 2.76-8.94 6.96-10.84 9.87-2.1 8.06-4.05 19.59-2.07 30.98.45 2.55 1.05 4.86 1.08 5 1.11 4.28 2.6 7.98 4.16 11.23 1.65 3.4 3.4 6.31 4.95 8.86.51.82 1.17 1.88 1.97 3.11.53.81 1.13 1.7 1.79 2.64 1.02-3.23 1.97-7.97.83-13.27-1.41-6.56-4.8-8.16-5.09-14.2-.26-5.36 2.05-11.63 5.7-12.6 1.41-.37 2.08.3 6.02 1.82 6.73 2.61 8.05 1.93 12.71 3.92 2.36 1.02 5.65 2.76 9.26 5.87l.01.01.01-.01c3.61-3.11 6.9-4.85 9.26-5.87 4.66-2 5.98-1.31 12.71-3.92 3.94-1.53 4.61-2.19 6.02-1.82 3.65.97 5.95 7.24 5.7 12.6-.29 6.05-3.68 7.64-5.09 14.2-1.14 5.3-.19 10.04.83 13.27.66-.94 1.26-1.83 1.79-2.64.81-1.23 1.47-2.29 1.97-3.11 1.55-2.55 3.3-5.46 4.95-8.86 1.57-3.25 3.05-6.95 4.16-11.23.03-.15.63-2.45 1.08-5 2.02-11.39.07-22.91-2.03-30.98Z"/><path fill="#F9DE81" d="M105.43 57.8c-1.6 2.24-3.26 4.81-4.88 7.71-1.88 3.38-3.3 6.57-4.44 9.45-1.14-2.88-2.55-6.07-4.44-9.45-1.62-2.9-3.28-5.47-4.88-7.71.7-1.02 1.4-2.1 2.06-3.23 4.58-7.75 6.5-15.58 7.26-22.05.75 6.48 2.67 14.3 7.26 22.05.67 1.13 1.36 2.21 2.06 3.23Z"/><path fill="#56595B" d="M72.08 75.02c-2.88.13-4.82 2.29-5.2 2.71-2.78 3.09-3.18 8.08-1 12.77a16.376 16.376 0 0 1 14.04-.06c.61-.99 1.47-2.72 1.49-4.92.07-5.18-4.54-10.72-9.33-10.5Z"/><path fill="#BD9AFF" d="M79.93 90.44c-.45.62-1.18 1.47-2.27 2.24-2.37 1.67-6.61 3.02-9.53.94-.55-.39-1.59-1.28-2.24-3.12 1.3-.62 3.58-1.5 6.56-1.6 3.46-.11 6.13.91 7.48 1.54Z"/><path fill="#fff" d="M75.57 77.76c-.95-.08-1.86.75-1.82 1.71.03.76.63 1.41 1.38 1.55.82.15 1.66-.33 1.91-1.08.3-.96-.44-2.09-1.47-2.18Z"/><path fill="#511119" d="M92.09 97.01c-.07-.08-.14-.15-.21-.21v-.01c-.65-.66-1.25-1.31-1.81-1.94.07-.27.73-2.54 3.09-3.52a5.07 5.07 0 0 1 2.54-.36c-.89-.75-2.12-1.41-3.67-1.49-.41-.03-3.14-.15-3.77 1.2-.66 1.49 1.53 4.09 3.83 6.33Z"/><path fill="#F4806D" d="M102.14 94.85c-.56.63-1.16 1.28-1.81 1.94-.12-.33-.67-1.75-2.15-2.42-.65-.3-1.36-.4-2.07-.33a3.88 3.88 0 0 0-2.07.33c-1.48.67-2.03 2.09-2.15 2.42-.65-.66-1.25-1.31-1.81-1.94.07-.27.73-2.54 3.09-3.52a5.07 5.07 0 0 1 2.54-.36c.15.11.27.23.39.34.12-.11.25-.23.39-.34.74-.08 1.62-.03 2.54.36 2.39.97 3.05 3.24 3.11 3.52Z"/><path fill="#F58F8A" d="M100.34 96.78c-.07.08-.14.15-.21.22-.04.03-.09.08-.13.12-.08.08-.15.16-.25.25-.15.15-.32.31-.48.45-.76.7-1.49 1.35-2.1 1.88-.38.33-.72.64-1.06.93-.34-.28-.69-.59-1.06-.93-.61-.53-1.34-1.18-2.1-1.88-.16-.15-.33-.3-.48-.45l-.25-.25a1.42 1.42 0 0 0-.13-.12c-.07-.08-.14-.15-.21-.21v-.01c.12-.33.67-1.75 2.15-2.42.65-.3 1.36-.4 2.07-.33.71-.08 1.42.03 2.07.33 1.5.68 2.05 2.1 2.17 2.42Z"/></g></g><defs><clipPath id="a"><path fill="#fff" d="M0 0h192v192H0z"/></clipPath><clipPath id="b"><path fill="#fff" d="M20 19h152.22v153H20z"/></clipPath></defs></svg>

<svg width="192" height="192" viewBox="0 0 192 192" fill="none" xmlns="http://www.w3.org/2000/svg">
<g clip-path="url(#clip0)">
<g clip-path="url(#clip1)">
<path d="M96.11 172C138.144 172 172.22 159.67 172.22 144.46C172.22 129.25 138.144 116.92 96.11 116.92C54.0756 116.92 20 129.25 20 144.46C20 159.67 54.0756 172 96.11 172Z" fill="#9ABEFF"/>
<path d="M96.11 164.12C132.08 164.12 161.24 154.422 161.24 142.46C161.24 130.498 132.08 120.8 96.11 120.8C60.1397 120.8 30.98 130.498 30.98 142.46C30.98 154.422 60.1397 164.12 96.11 164.12Z" fill="#728DBE"/>
<path d="M135.09 120.07C134.79 120.22 137.38 124.47 138.35 130.63C138.68 132.74 138.74 134.51 138.74 135.71C138.87 138.51 138.75 142.14 137.82 146.23C137.31 148.5 136.64 150.5 135.95 152.2C135.68 152.52 135.25 152.98 134.59 153.44C132.74 130.13 131.29 120.44 130.14 118.16C130.11 118.12 129.97 117.83 129.78 117.42C129.17 116.12 128.05 113.42 127.52 109.9C127.44 109.39 127.38 108.88 127.35 108.37C128.16 107.14 128.82 106.08 129.32 105.26C130.87 102.71 132.62 99.8 134.27 96.4C135.84 93.15 137.32 89.45 138.43 85.17C138.46 85.02 139.06 82.72 139.51 80.17C139.57 81.69 139.63 83.23 139.69 84.76C146.12 72.61 148.78 70.53 150.01 70.93C153.14 71.98 150.34 90.32 146.41 103.98C143.82 113 140.7 120.15 138.37 124.91C135.91 120.82 135.23 119.99 135.09 120.07Z" fill="#56595B"/>
<path d="M134.59 153.44C131.53 158.84 125.49 161.59 121.19 163.02C114.26 164.24 105.91 165.18 96.45 165.2C86.7 165.22 78.12 164.26 71.04 163.02C69.25 162.53 66.69 161.5 63.87 159.72C61.44 158.18 59.17 156.14 57.64 153.44C59.49 130.13 60.94 120.44 62.09 118.16C62.12 118.12 62.26 117.83 62.45 117.42C63.06 116.12 64.18 113.42 64.71 109.9C64.79 109.39 64.85 108.88 64.88 108.37C65.41 109.18 66.01 110.07 66.67 111.01C67.69 107.78 68.64 103.04 67.5 97.74C66.09 91.18 62.7 89.58 62.41 83.54C62.15 78.18 64.46 71.91 68.11 70.94C69.52 70.57 70.19 71.24 74.13 72.76C80.86 75.37 82.18 74.69 86.84 76.68C89.2 77.7 92.5 79.45 96.11 82.56C99.72 79.45 103.02 77.7 105.38 76.68C110.04 74.68 111.36 75.37 118.09 72.76C122.03 71.23 122.7 70.57 124.11 70.94C127.76 71.91 130.06 78.18 129.81 83.54C129.52 89.59 126.13 91.18 124.72 97.74C123.58 103.04 124.53 107.78 125.55 111.01C126.21 110.07 126.81 109.18 127.34 108.37C127.37 108.88 127.43 109.39 127.51 109.9C128.04 113.42 129.16 116.12 129.77 117.42C129.96 117.82 130.1 118.11 130.13 118.16C131.29 120.44 132.74 130.13 134.59 153.44Z" fill="white"/>
<path d="M120.14 75.02C123.02 75.15 124.96 77.31 125.34 77.73C128.12 80.82 128.52 85.81 126.34 90.5C125.04 89.88 122.54 88.89 119.26 88.89C116.05 88.89 113.59 89.83 112.3 90.44C111.69 89.45 110.83 87.72 110.81 85.52C110.74 80.34 115.36 74.8 120.14 75.02Z" fill="#56595B"/>
<path d="M112.29 90.44C112.74 91.06 113.47 91.91 114.56 92.68C116.93 94.35 121.17 95.7 124.09 93.62C124.64 93.23 125.68 92.34 126.33 90.5C125.03 89.88 122.75 89 119.77 88.9C116.31 88.79 113.64 89.81 112.29 90.44Z" fill="#BD9AFF"/>
<path d="M116.66 77.76C117.61 77.68 118.52 78.51 118.48 79.47C118.45 80.23 117.85 80.88 117.1 81.02C116.28 81.17 115.44 80.69 115.19 79.94C114.88 78.98 115.63 77.85 116.66 77.76Z" fill="white"/>
<path d="M106.57 90.88C104.66 94.59 101.74 98.56 97.24 101.41C96.86 101.65 96.49 101.88 96.11 102.09C95.73 101.88 95.36 101.65 94.98 101.41C90.48 98.56 87.56 94.59 85.65 90.88C85.86 90.14 86.14 89.5 86.44 88.94C88.91 84.29 94.36 82.93 96.11 82.56C97.87 82.93 103.32 84.29 105.78 88.94C106.08 89.5 106.36 90.14 106.57 90.88Z" fill="#F8C18C"/>
<path d="M100.13 97.01C100.2 96.93 100.27 96.86 100.34 96.8V96.79C100.99 96.13 101.59 95.48 102.15 94.85C102.08 94.58 101.42 92.31 99.06 91.33C98.13 90.94 97.25 90.89 96.52 90.97C97.41 90.22 98.64 89.56 100.19 89.48C100.6 89.45 103.33 89.33 103.96 90.68C104.63 92.17 102.43 94.77 100.13 97.01Z" fill="#511119"/>
<path d="M57.13 120.07C57.43 120.22 54.84 124.47 53.87 130.63C53.54 132.74 53.48 134.51 53.48 135.71C53.35 138.51 53.47 142.14 54.4 146.23C54.91 148.5 55.58 150.5 56.27 152.2C56.54 152.52 56.97 152.98 57.63 153.44C59.48 130.13 60.93 120.44 62.08 118.16C62.11 118.12 62.25 117.83 62.44 117.42C63.05 116.12 64.17 113.42 64.7 109.9C64.78 109.39 64.84 108.88 64.87 108.37C64.06 107.14 63.4 106.08 62.9 105.26C61.35 102.71 59.6 99.8 57.95 96.4C56.38 93.15 54.9 89.45 53.79 85.17C53.76 85.02 53.16 82.72 52.71 80.17C52.65 81.69 52.59 83.23 52.53 84.76C46.1 72.61 43.44 70.53 42.21 70.93C39.08 71.98 41.88 90.32 45.81 103.98C48.4 113 51.52 120.15 53.85 124.91C56.32 120.82 56.99 119.99 57.13 120.07Z" fill="#56595B"/>
<path d="M137.44 49.18C135.55 46.27 132.15 42.07 126.6 39.31C125.37 38.7 124.18 38.23 123.05 37.86C124.18 40.46 125.31 43.05 126.45 45.65C126.06 46.87 125.42 48.47 124.33 50.17C123.31 51.76 122.21 52.95 121.31 53.79C118.75 52.15 116.91 50.88 115.56 49.9C114.57 49.17 113.4 48.3 111.67 48.04C110.56 47.89 110.37 48.14 109.62 47.99C107.47 47.56 105.67 44.78 105.41 42.19C105.02 38.06 108.64 35.4 108.81 35.28C108.05 33.14 106.83 30.43 104.86 27.59C104.53 27.11 104.19 26.66 103.84 26.22C103.75 26.1 103.66 25.99 103.57 25.88C103.29 25.54 103.02 25.2 102.74 24.88C102.66 24.79 102.58 24.69 102.5 24.6C102.23 24.3 101.96 24.01 101.7 23.73C99.68 21.59 97.67 20.04 96.11 19C94.55 20.04 92.54 21.59 90.5 23.73C90.23 24.01 89.96 24.3 89.7 24.6C89.62 24.69 89.54 24.79 89.46 24.88C89.18 25.2 88.9 25.53 88.63 25.88C88.54 25.99 88.45 26.11 88.36 26.22C88.02 26.66 87.68 27.11 87.34 27.59C85.37 30.43 84.15 33.13 83.39 35.28C83.56 35.41 87.19 38.06 86.79 42.19C86.53 44.78 84.73 47.56 82.58 47.99C81.83 48.14 81.64 47.89 80.53 48.04C78.8 48.3 77.63 49.17 76.64 49.9C75.29 50.88 73.45 52.15 70.89 53.79C69.99 52.96 68.89 51.77 67.87 50.17C66.78 48.47 66.14 46.86 65.75 45.65C66.89 43.05 68.02 40.46 69.15 37.86C68.02 38.23 66.83 38.7 65.6 39.31C60.06 42.07 56.66 46.27 54.76 49.18C52.66 57.24 50.71 68.77 52.69 80.16C53.14 82.71 53.74 85.02 53.77 85.16C54.88 89.44 56.37 93.14 57.93 96.39C59.58 99.79 61.33 102.7 62.88 105.25C63.39 106.07 64.05 107.13 64.85 108.36C65.38 109.17 65.98 110.06 66.64 111C67.66 107.77 68.61 103.03 67.47 97.73C66.06 91.17 62.67 89.57 62.38 83.53C62.12 78.17 64.43 71.9 68.08 70.93C69.49 70.56 70.16 71.23 74.1 72.75C80.83 75.36 82.15 74.68 86.81 76.67C89.17 77.69 92.46 79.43 96.07 82.54L96.08 82.55L96.09 82.54C99.7 79.43 102.99 77.69 105.35 76.67C110.01 74.67 111.33 75.36 118.06 72.75C122 71.22 122.67 70.56 124.08 70.93C127.73 71.9 130.03 78.17 129.78 83.53C129.49 89.58 126.1 91.17 124.69 97.73C123.55 103.03 124.5 107.77 125.52 111C126.18 110.06 126.78 109.17 127.31 108.36C128.12 107.13 128.78 106.07 129.28 105.25C130.83 102.7 132.58 99.79 134.23 96.39C135.8 93.14 137.28 89.44 138.39 85.16C138.42 85.01 139.02 82.71 139.47 80.16C141.49 68.77 139.54 57.25 137.44 49.18Z" fill="#B1B5BD"/>
<path d="M105.43 57.8C103.83 60.04 102.17 62.61 100.55 65.51C98.67 68.89 97.25 72.08 96.11 74.96C94.97 72.08 93.56 68.89 91.67 65.51C90.05 62.61 88.39 60.04 86.79 57.8C87.49 56.78 88.19 55.7 88.85 54.57C93.43 46.82 95.35 38.99 96.11 32.52C96.86 39 98.78 46.82 103.37 54.57C104.04 55.7 104.73 56.78 105.43 57.8Z" fill="#F9DE81"/>
<path d="M72.08 75.02C69.2 75.15 67.26 77.31 66.88 77.73C64.1 80.82 63.7 85.81 65.88 90.5C67.18 89.88 69.68 88.89 72.96 88.89C76.17 88.89 78.63 89.83 79.92 90.44C80.53 89.45 81.39 87.72 81.41 85.52C81.48 80.34 76.87 74.8 72.08 75.02Z" fill="#56595B"/>
<path d="M79.93 90.44C79.48 91.06 78.75 91.91 77.66 92.68C75.29 94.35 71.05 95.7 68.13 93.62C67.58 93.23 66.54 92.34 65.89 90.5C67.19 89.88 69.47 89 72.45 88.9C75.91 88.79 78.58 89.81 79.93 90.44Z" fill="#BD9AFF"/>
<path d="M75.5701 77.76C74.6201 77.68 73.7101 78.51 73.7501 79.47C73.7801 80.23 74.3801 80.88 75.1301 81.02C75.9501 81.17 76.7901 80.69 77.0401 79.94C77.3401 78.98 76.6001 77.85 75.5701 77.76Z" fill="white"/>
<path d="M92.09 97.01C92.02 96.93 91.95 96.86 91.88 96.8V96.79C91.23 96.13 90.63 95.48 90.07 94.85C90.14 94.58 90.8 92.31 93.16 91.33C94.09 90.94 94.97 90.89 95.7 90.97C94.81 90.22 93.58 89.56 92.03 89.48C91.62 89.45 88.89 89.33 88.26 90.68C87.6 92.17 89.79 94.77 92.09 97.01Z" fill="#511119"/>
<path d="M102.14 94.85C101.58 95.48 100.98 96.13 100.33 96.79C100.21 96.46 99.66 95.04 98.18 94.37C97.53 94.07 96.82 93.97 96.11 94.04C95.4 93.96 94.69 94.07 94.04 94.37C92.56 95.04 92.01 96.46 91.89 96.79C91.24 96.13 90.64 95.48 90.08 94.85C90.15 94.58 90.81 92.31 93.17 91.33C94.1 90.94 94.98 90.89 95.71 90.97C95.86 91.08 95.98 91.2 96.1 91.31C96.22 91.2 96.35 91.08 96.49 90.97C97.23 90.89 98.11 90.94 99.03 91.33C101.42 92.3 102.08 94.57 102.14 94.85Z" fill="#F4806D"/>
<path d="M100.34 96.78C100.27 96.86 100.2 96.93 100.13 97C100.09 97.03 100.04 97.08 100 97.12C99.92 97.2 99.85 97.28 99.75 97.37C99.6 97.52 99.43 97.68 99.27 97.82C98.51 98.52 97.78 99.17 97.17 99.7C96.79 100.03 96.45 100.34 96.11 100.63C95.77 100.35 95.42 100.04 95.05 99.7C94.44 99.17 93.71 98.52 92.95 97.82C92.79 97.67 92.62 97.52 92.47 97.37C92.38 97.28 92.3 97.2 92.22 97.12C92.18 97.08 92.13 97.03 92.09 97C92.02 96.92 91.95 96.85 91.88 96.79V96.78C92 96.45 92.55 95.03 94.03 94.36C94.68 94.06 95.39 93.96 96.1 94.03C96.81 93.95 97.52 94.06 98.17 94.36C99.67 95.04 100.22 96.46 100.34 96.78Z" fill="#F58F8A"/>
</g>
</g>
<defs>
<clipPath id="clip0">
<rect width="192" height="192" fill="white"/>
</clipPath>
<clipPath id="clip1">
<rect width="152.22" height="153" fill="white" transform="translate(20 19)"/>
</clipPath>
</defs>
</svg>
